X:1
T: The Leitrim Thrush
C:
R:Reel
Q: 232
K:Am
M:4/4
L:1/8
A3B cA GB|Ac AG EF Gc|AG AB cd ef|ge ag ec dB|
AG AB cA GB|Ac AG EB, Cc|AG AB cd ef|((3gfe) ag ec c2|
|:((3gag) ec gc ec|gc ec Bc d2|gc ec gc ec|ga gf ec c2|
((3gag) ec gc ec|gc ec Bc d2|ga ge ((3ded) cA|GA ag ec dc:|
A3B cA GB|Ac AG EF Gc|AG AB cd ef|ge ag ec dB|
AG AB cA GB|Ac AG EB, Cc|AG AB cd ef|((3gfe) ag ec c2||
